X: 23
T: No_120_Invite_Our_Sweetheart.krn
%%abc-version 2.0
%%abcx-abcm2ps-target-version 5.9.1 (29 Sep 2008)
%%abc-creator hum2abc beta
%%abcx-conversion-date 2020/08/10 18:54:56
%%gracespace 0 6 6
%%humdrum-veritas 2049518449
%%humdrum-veritas-data 175053921
%%linebreak <none>
%%barnumbers 0
L: 1/8
M: 2/4
%%staves {1 2}
V: 1 clef=bass
V: 2 clef=bass
K: Bb
[V:1] DD [I:setbarnb 1]| 
[V:2] z2 | 
[V:1] DB,B,2 | 
[V:2] (3!accent!G,, z G,, (3!accent!G,, z G,, | 
[V:1] B,2B,B, | 
[V:2] z4 | 
[V:1] B,G,G,2 ||  
[V:2] z4 ||  
[V:1] [M:3/4]G,2G,2G,G, ||  
[V:2] [M:3/4]z6 ||  
[V:1] [M:2/4]G,2G,3/B,/ | 
[V:2] [M:2/4]z4 | 
[V:1] B,2CC | 
[V:2] z4 | 
[V:1] B,4 | 
[V:2] z4 | 
[V:1] G,2D,2 | 
[V:2] z4 | 
[V:1] D,2-D,3/G,/ | 
[V:2] z4 | 
[V:1] G,3G, | 
[V:2] z4 | 
[V:1] G,2D,2 | 
[V:2] z4 | 
[V:1] G,3G, | 
[V:2] z4 | 
[V:1] G,2-G,3/B,/ | 
[V:2] z4 | 
[V:1] B,2CC | 
[V:2] z4 | 
[V:1] B,4 | 
[V:2] z4 | 
[V:1] G,2D,2 | 
[V:2] z4 | 
[V:1] D,2-D,3/G,/ | 
[V:2] z4 | 
[V:1] G,3G, | 
[V:2] z4 | 
[V:1] G,2D,2 | 
[V:2] z4 | 
[V:1] G,3G, | 
[V:2] z4 | 
[V:1] G,4 |]  
[V:2] z4 |]  


